X: 36174
T: Scotsville
R: reel
M: 4/4
K: Amajor
|:c2Ac ecfd|c2Ac f2ea|c2Ac ecfc|1 B2Bc f2ed:|2 B2Bc f2ef||
|:acce AAec|acce f2ef|1 acce AAec|B2ce f2ef:|2 acce daca|B2ce f2ed||
|:cAAc ecfd|cAAc f2ea|cAAc ecfc|1 BBBc f2ed:|2 BBBc f2ef||
|:a2ea faef|a2ea f2ef|1 a2ea faec|BBBc f2ef:|2 aeea daca|BBBc f2ed||

